remix/Finance/copper-diamond-line.svg

<svg viewBox="0 0 24 24" fill="currentColor" xmlns="http://www.w3.org/2000/svg"><path d="M12.0049 22.0027C6.48204 22.0027 2.00488 17.5256 2.00488 12.0027C2.00488 6.4799 6.48204 2.00275 12.0049 2.00275C17.5277 2.00275 22.0049 6.4799 22.0049 12.0027C22.0049 17.5256 17.5277 22.0027 12.0049 22.0027ZM12.0049 20.0027C16.4232 20.0027 20.0049 16.421 20.0049 12.0027C20.0049 7.58447 16.4232 4.00275 12.0049 4.00275C7.5866 4.00275 4.00488 7.58447 4.00488 12.0027C4.00488 16.421 7.5866 20.0027 12.0049 20.0027ZM9.00488 8.00275H15.0049L17.5049 11.5027L12.0041 17.0027L6.50488 11.5027L9.00488 8.00275ZM10.0349 10.0027L9.11488 11.2927L12.0041 14.1827L14.8949 11.2927L13.9749 10.0027H10.0349Z"/></svg>

<svg viewBox="0 0 24 24" xmlns="http://www.w3.org/2000/svg"><path fill="none" d="M0 0h24v24H0Z"/><path d="M12 22C6.477 22 2 17.523 2 12 2 6.477 6.477 2 12 2c5.523 0 10 4.477 10 10s-4.477 10-10 10Zm0-2v0c4.41 0 8-3.59 8-8 0-4.42-3.59-8-8-8v0c-4.42 0-8 3.58-8 8 0 4.41 3.58 8 8 8ZM9 8h6l2.5 3.5L12 17l-5.5-5.5L9 8Zm1.03 2l-.92 1.29L12 14.18l2.89-2.89 -.92-1.29h-3.94Z"/></svg>
